X:317
T:Highland Skip, The
R:Reel
C:Daniel Dow
B:The Athole Collection
M:C|
L:1/8
K:F
f|cFc>A cFcA|cFcA c3d|cFcA cFAc|~f>dc>A G3:|
d|cAfA aAfA|cAfA c3d|cAfA aAfd|cFcA G3d|cAfA aAfA|
cAfA c3d|cAfA cdfg|~fdcA G3||

